X:1
T:Abiding, Oh, So Wondrous Sweet
T:D. C. Wright  
T:Abiding, Oh, So Wondrous Sweet
T:Public Domain
T:Public Domain
C:D. C. Wright
Z:Public Domain
%%score ( 1 2 ) ( 3 4 )
L:1/8
M:6/4
K:Ab
V:1 treble 
V:2 treble 
V:3 bass 
V:4 bass 
V:1
 [CE]2 | ([Ec]4 [DB]2) [CA]2 [B,G]2 [CA]2 | (B2 A2) [DF]2 [CE]4 [CE]2 | %3
w: 1.~A-|bid- * ing, oh, so|won- * drous sweet, I’m|
w: 2.~He|speaks, * and by His|word * is giv’n His|
w: 3.~I|live; * not I; ’tis|He * a- lone By|
w: 4.~Now|rest, * my heart, the|work * is done; I’m|
 (E2 [=DF]2) [_DG]2 [CA]4 [Ec]2 | [=Dc]4 [DB]2 [EB]4 E2 | [Ee]4 [Ed]2 [Ec]4 [=EB]2 | %6
w: ing * at the Sav-|feet, I trust in|I’m sa- tis- fied,|
w: a * rich fore- taste|Heav’n; Not as the|He peace doth give,|
w: the * might- y work|done; Dead to my-|a- live to Him,|
w: thro’ * the e- ter-|Son: Let all my|my soul em- ploy,|
 [FA]4 [Fd]2 [GB]4 E2 | ([DF]2 [DF]2) [DG]2 ([CA]2 [Ee]2) [Fd]2 | [Ec]4 [DB]2 [CA]4 || %9
w: I’m rest- ing in|Cru- * ci- fied. * *||
w: ’Tis thro’ this hope|soul * shall live. * A-|bid- ing, a-|
w: I count all loss|rest * to gain. * *||
w: To tell the world|peace * and joy. * *||
"^Refrain" [CE]2 | [Ec]6 [CA]4 [CE]2 | [Ed]6 [EB]6 | [Ed]4 [Ed]2 (d2 e2) [Ed]2 | [Ec]6- [Ec]4 E2 | %14
w: |||||
w: bid-|ing, Oh! so|won- drous|sweet; I’m rest- * ing,|ing, * At|
w: |||||
w: |||||
 [Ee]6 [Ec]6 | [Fd]6 [DF]6 | [CE]4 [EA]2 (G2 F2) [DG]2 | (C2 D2 D2 [CA]4) |] %18
w: ||||
w: Sav- ior’s|feet. *|||
w: ||||
w: ||||
V:2
 x2 | x12 | D4 x8 | E2 x10 | x10 E2 | x12 | x10 E2 | x12 | x10 || x2 | x12 | x12 | x6 E4 x2 | %13
w: ||rest-|ior’s|Him,||the|||||||
w: ||peace,|of|world||my||||||rest-|
w: ||whom|is|self,||His|||||||
w: ||saved|nal|pow’rs||my|||||||
 x10 E2 | x12 | x12 | x6 D4 x2 | A6- x4 |] %18
w: |||||
w: the|||||
w: |||||
w: |||||
V:3
 [A,,A,]2 | ([A,,A,]4 [A,,E,]2) [A,,E,]4 [A,,E,]2 | [D,F,]4 [D,A,]2 [A,,A,]4 [A,,A,]2 | %3
 (G,2 A,2) [E,B,]2 [A,,A,]4 [A,,A,]2 | [B,,F,]4 [B,,A,]2 [E,G,]4 [G,_D]2 | %5
 [A,C]4 [A,B,]2 A,4 [G,C]2 | [F,C]4 [B,,B,]2 [E,B,]4 [E,G,]2 | [A,,A,]4 [E,B,]2 (A,2 C,2) [D,A,]2 | %8
 [E,A,]4 [E,G,]2 [A,,A,]4 || [A,,E,]2 | ([A,,A,]2 [A,,A,]2 [A,,A,]2) [A,,E,]4 A,2 | %11
 ([E,G,]2 [E,G,]2 [E,G,]2) [E,G,]6 | [G,B,]4 [G,B,]2 (B,2 C2) [E,B,]2 | %13
 A,2 E,2 C,2 [A,,A,]4 [A,C]2 | ([A,C]2 [A,C]2 [A,C]2) A,6 | ([D,A,]2 [D,A,]2 [D,A,]2) [D,A,]6 | %16
 [E,A,]4 [E,C]2 (B,2 A,2) [E,B,]2 | (A,2 F,2 _F,2 [A,,E,]4) |] %18
V:4
 x2 | x12 | x12 | E,4 x8 | x12 | x6 A,4 x2 | x12 | x6 A,4 x2 | x10 || x2 | x10 A,2 | x12 | %12
 x6 E,4 x2 | A,6- x6 | x6 A,6 | x12 | x6 E,4 x2 | A,,6- x4 |] %18

